!!!!SEGMENT: pl-wtm--a-41-956-96_lawina-swietochowski-jerzy--najwiekszy-figlarz-to-serce-moglby-sie-ktos-zapytac-mnie.krn
!!!cenid: 19xx:26
!!!COM: Lawina-Świętochowski, Jerzy
!!!COM-rismID: pe50054700
!!!CDT: 1906-1946
!!!CNT: Polish
!!!OTL: Największy figlarz – to serce/Mógłby się ktoś zapytać mnie
!!!PDT:
!!!AGN: Secular
!!!YEC: Copyright 2022 Narodowy Instytut Fryderyka Chopina (https://polishscores.org)
!!!YEM: License CC-BY-4.0 (https://creativecommons.org/licenses/by/4.0)
!!!SMS-siglum: PL-Wtm
!!!SMS-shelfmark: A.41.956/96
!!!SMS-variant:
!!!SMS-altvar:
!!!SMS-shelfwork: W
!!!NIFC-rismSourceID: 1001219378
!!!NIFC-rismChildID: 1001219378
!!!NIFC-islandoraID: pl-wtm:97587
!!!URL-pdf-islandora: https://repozytorium.nifc.pl/islandora/object/pl-wtm%3A97587/datastream/PDF/view
!!!URL-scan: https://polish.musicsources.pl/pl/lokalizacje/galeria/druki-muzyczne/22298/2 @EN{Scan on Polish Music Sources Website} @PL{Skany w portalu Dziedzictwo Muzyki Polskiej w otwartym dostępie}
!!!IIIF:
!!!ONB-nifc:
!!!OMD: SLOW-FOX
!!!AIN: 1 piano 1 vox
!!!key: E-
**kern	**kern	**dynam	**kern	**text	**text
*part2	*part2	*part2	*part1	*part1	*part1
*staff3	*staff2	*	*staff1	*staff1	*staff1
*ICklav	*ICklav	*	*ICvox	*	*
*Ipiano	*Ipiano	*	*Ivox	*	*
*I"[Piano]	*I"[Piano]	*	*I"[Voce]	*	*
*clefF4	*clefG2	*	*clefG2	*	*
*k[b-e-a-]	*k[b-e-a-]	*	*k[b-e-a-]	*	*
*E-:	*E-:	*	*E-:	*	*
*M4/4	*M4/4	*	*M4/4	*	*
*met(c)	*met(c)	*	*met(c)	*	*
*>[A,B,B1,B,B2]	*>[A,B,B1,B,B2]	*	*>[A,B,B1,B,B2]	*	*
=1	=1	=1	=1	=1	=1
*>A	*>A	*	*>A	*	*
4AA-/ 4E-	4c/ 4e-	.	1r	.	.
12AA-/L 12F	12c/L 12f	.	.	.	.
12E-/	12e-/	.	.	.	.
12AA-/J 12E-	12c/J 12f	.	.	.	.
4C-X/ 4G-X	4e-/ 4g-X	.	.	.	.
!LO:TUP:a	!	!	!	!	!
12C-\L 12A-	12e-/L 12a-	.	.	.	.
12G-\	12g-/	.	.	.	.
12C-\J 12A-	12e-/J 12a-	.	.	.	.
=2	=2	=2	=2	=2	=2
4BB-\ 4Gn	4B-/ 4gn 4b-	.	1r	.	.
4C-X\ 4G-X	4c-X/ 4e- 4b-	.	.	.	.
2BB-\ 2F	2B-/ 2d 2b-	.	.	.	.
=3!|:	=3!|:	=3!|:	=3!|:	=3!|:	=3!|:
*>B	*>B	*	*>B	*	*
*	*	*	*	*v:1	*v:2
4EE-/ 4BB- 4E-	4B-/ 4e- 4g 4b-	.	12B-/	Mógł-	Moż-
.	.	.	12B-/	-by	-na
.	.	.	12B-/	się	się
4E-\ 4G	8.B-/L 8.e- 8.g 8.b-	.	8B-/	ktoś	gnie-
.	.	.	8B-/	za-	-wać
.	16B-/Jk 16b-	.	.	.	.
4FF#X/ 4F#X	2Bn/ 2d#X 2an 2bn	.	8Bn/	-py-	wście-
.	.	.	8B/	-tać	-kać
4BBBn/ 4BBn	.	.	4B/	mnie,	się,
!!LO:LB:g=original
=4	=4	=4	=4	=4	=4
*	*	*	*	*v:1	*v:2
4FF/ 4C 4F	4c/ 4f 4a- 4cc	.	12c/	o	Moż-
.	.	.	12c/	czem	-na
.	.	.	12c/	wła-	być
4F\ 4A-	8.c/L 8.f 8.a- 8.cc	.	8c/	-ści-	mą-
.	.	.	8c/	-wie	-drym,
.	16c/Jk 16cc	.	.	.	.
4AA-\ 4A-	2d-X/ 2f 2cc-X 2dd-X	.	8d-X/	mó-	al-
.	.	.	8d-/	-wić	-bo
4DD-X/ 4D-X	.	.	4d-/	chcę	nie,
=5	=5	=5	=5	=5	=5
*	*^	*	*	*	*
4FF/ 4F	4dn/ 4a- 4ddn	2.ryy	.	12dn/	i	krzy-
.	.	.	.	12d/	czy	-czeć:
.	.	.	.	12d/	to	Ja
4F\ 4A- 4B-	8.d/L 8.a- 8.dd	.	.	12d/	ma	nie
.	.	.	.	12d/	ja-	chcę!
.	.	.	.	12d/	-kiś	.
.	16d/Jk 16dd	.	.	.	.	.
4BBB-/ 4BB-	8d/L 8a- 8dd	.	.	8d/	głęb-	lub
.	8bb-/J	.	.	8b-\	-szy	od-
4A-\ 4B- 4d	8bb-/L	4a-\ 4dd	.	8b-\	sens,	-wrot-
.	8gg/J	.	.	8g/	czy	-nie,
*	*v	*v	*	*	*	*
=6	=6	=6	=6	=6	=6
4EE-:/ 4BB-: 4G:	1cc 1ee- 1gg 1bb-	.	1b-	nie?	chcę!
8.B-\L 8.c 8.e- 8.g	.	.	.	.	.
16BB-\Jk	.	.	.	.	.
8.EE-/L	.	.	.	.	.
16B-/Jk	.	.	.	.	.
4c\ 4e- 4g	.	.	.	.	.
!!LO:LB:g=original
=7	=7	=7	=7	=7	=7
*	*	*	*	*v:1	*v:2
4EE-/ 4BB- 4E-	4B-/ 4e- 4g 4b-	.	12B-/	Mu-	Ser-
.	.	.	12B-/	-szę	-ce
.	.	.	12B-/	w mil-	się
4E-\ 4G	8.B-/L 8.e- 8.g 8.b-	.	8B-/	-cze-	ci-
.	.	.	8B-/	-niu	-cho
.	16B-/Jk 16b-	.	.	.	.
4FF#X/ 4F#X	2Bn/ 2d#X 2an 2bn	.	8Bn/	wszys-	śmie-
.	.	.	8B/	-tko	-je
4BBBn/ 4BBn	.	.	8B/	znieść,	z nas
.	.	.	8B/	gdyż	i
=8	=8	=8	=8	=8	=8
4FFn/ 4C 4Fn	4c/ 4f 4a- 4cc	.	8c/	ta	bi-
.	.	.	8c/	pio-	-je,
4F\ 4A-	8.c/L 8.a- 8.cc	.	8c/	-sen-	bi-
.	.	.	8c/	-ka	-je
.	16c/Jk 16cc	.	.	.	.
4AA-\ 4A-	2d-X/ 2f 2cc-X 2dd-X	.	12d-X/	ta-	raz
.	.	.	12d-/	-ką	po
.	.	.	12d-/	ma	.
4DD-X/ 4D-X	.	.	4d-/	treść,	raz,
=9	=9	=9	=9	=9	=9
4AAn\ 4An	4dn/ 4f#X 4ddn	.	12d/	że	bo
.	.	.	12d/	trze-	o-
.	.	.	12d/	-ba	-no
4D\ 4F#X 4c	8.d/L 8.f# 8.dd	.	8d/	kil-	jed-
.	.	.	8d/	-ka	-no
.	16d/Jk 16dd	.	.	.	.
4DD/ 4D	8d\L 8f# 8dd	.	12d/	słów	ma
.	.	.	12dd\	wy-	na-
.	8dd\J 8ff#X 8ddd	.	.	.	.
.	.	.	12dd\	-ja-	.
4D\ 4F# 4c	8dd\L 8ff# 8ddd	.	8dd\	-śnie-	-praw-
.	8bn\J 8bbn	.	8bn\	-nia	-dę
!!LO:LB:g=original
=10	=10	=10	=10	=10	=10
*	*	*	*	*v:1	*v:2
4GG/	2.g\ 2.bn 2.dd 2.gg	.	2g/	wpleść!	czas!
8.G\L 8.Bn 8.d 8.en	.	.	.	.	.
16DD\Jk	.	.	.	.	.
8.GGG/L	.	.	4r	.	.
16G/Jk	.	.	.	.	.
4B\ 4d 4e	8r	.	8r	.	.
.	8g/	.	8g/	W dwóch	Być
=11	=11	=11	=11	=11	=11
2DD/ 2D	4e-X/ 4f#X 4cc	.	4cc\	sło-	mo-
.	4e-/ 4f# 4cc	.	4cc\	-wach	-że
2DD/ 2D	6e-/ 6f# 6cc	.	6cc\	wszys-	ktoś
.	6d/ 6f# 6b-X	.	6b-X\	-tko	się
.	6c/ 6f# 6an	.	6an/	to	nie
=12	=12	=12	=12	=12	=12
*	*^	*	*	*	*
4GG/ 4D	4r	2.Bn/ 2.d 2.g	.	4g/	zmiesz-	zgo-
4GG/ 4D	8r	.	.	4g/	-czę,	-dzi,
.	4.bn/ 4.dd 4.een 4.gg	.	.	.	.	.
4GG/ 4D	.	.	.	4r	.	.
4GG/ 4D	8r	8ryy	.	8r	.	.
.	8ryy	8g/	.	8g/	i	a
*	*v	*v	*	*	*	*
!!LO:PB:g=original
=13	=13	=13	=13	=13	=13
1AA-X 1E-X	6e-X/ 6g-X 6cc	.	6cc\	bar-	zresz-
.	6e-/ 6g- 6cc	.	6cc\	-dzo	-tą,
.	6e-/ 6g- 6cc	.	6cc\	prze-	czyz
.	6e-/ 6g- 6cc	.	6cc\	-pra-	o
.	6d-X/ 6g- 6b-X	.	6b-X\	-szam	to
.	6c/ 6g- 6a-X	.	6a-X/	raz	tu
=14	=14	=14	=14	=14	=14
*	*^	*	*	*	*
4GGn/ 4Dn	8r	1Bn 1dn 1en 1gn	.	4g/	jesz-	cho-
.	8dd/	.	.	.	.	.
4GG/ 4D	12een/L	.	.	4g/	-cze!	-dzi?
.	12gg/	.	.	.	.	.
.	12ee/J	.	.	.	.	.
4GG/ 4D	12dd/L	.	.	2r	.	.
.	12bn/	.	.	.	.	.
.	12an/J	.	.	.	.	.
4GG/ 4D	12g/L	.	.	.	.	.
.	12en/	.	.	.	.	.
.	12e-X/J	.	.	.	.	.
=15	=15	=15	=15	=15	=15	=15
4GG/ 4D	2d/	4G\ 4Bn	.	12d/	Ży-	Je-
.	.	.	.	12d/	-cie,	-śli
.	.	.	.	12d/	to	się
4DD/	.	4G\ 4B	.	12d/	far-	ktoś
.	.	.	.	12d/	-sa!	prze-
.	.	.	.	12d/	Trzy	-ko-
(16qqGG/LL	.	.	.	.	.	.
16qqAA-/	.	.	.	.	.	.
16qqAAn/JJ	.	.	.	.	.	.
4BB-X/)	2e-X/	8G\ 8d-X	.	8e-X/	a-	-nać
.	.	4.G\ 4.d-	.	8e-/	-kty	.
4EE-X/	.	.	.	4e-/	ma,	chce,
!!LO:LB:g=original
=16	=16	=16	=16	=16	=16	=16
4AAn/ 4En	2en/	4An\ 4c	.	12en/	świt	niech
.	.	.	.	12e/	i	w za-
.	.	.	.	12e/	po-	-my-
4EEn/	.	4A\ 4c	.	12e/	-łu-	-śle-
.	.	.	.	12e/	-dnie	-niu
.	.	.	.	12e/	i	po-
(16qqAA/LL	.	.	.	.	.	.
16qqBB-/	.	.	.	.	.	.
16qqBBn/JJ	.	.	.	.	.	.
4C/)	2f/	8A\ 8e-X	.	8f/	ko-	-słu-
.	.	4.A\ 4.e-	.	8f/	-niec	-cha
4FF/	.	.	.	4f/	dnia,	mnie,
*	*v	*v	*	*	*	*
=17	=17	=17	=17	=17	=17
4AAn/ 4D	4c/ 4f#X	.	12f#X/	a	jak
.	.	.	12f#/	ty-	ser-
.	.	.	12f#/	-tu-	-ce
4D\ 4F#X 4An	8.c/L 8.f#	.	8f#/	-ło-	u-
.	.	.	8f#/	-wą	-mie
.	16c/Jk 16f#	.	.	.	.
4DD/	8c/ 8f#	.	8f#/	ro-	pła-
.	4c/ 4f# 4dd	.	8dd\	-lę	-tać
4D\ 4F# 4c	.	.	8dd\	ser-	fi-
.	8c/ 8f# 8bn	.	8bn\	-ce	-gle
=18	=18	=18	=18	=18	=18
*	*^	*	*	*	*
4GG/ 4G	4Bn/ 4d 4g	4ryy	.	4g/	gra!	swe!
4BB-X/ 4G	8.B-X/L 8.d 8.g	8.ryy	.	4r	.	.
.	16An/Jk 16d 16f#X	16ryy	.	.	.	.
2BBB-/ 2BB-	8rff	4A-X/ 4d 4fn	.	2r	.	.
.	8b-\L 8ee- 8bb-	.	.	.	.	.
.	8cc\ 8ff 8ccc	4ryy	.	.	.	.
.	8cc#X\J 8ff#X 8ccc#X	.	.	.	.	.
*	*v	*v	*	*	*	*
!!LO:LB:g=original
=19||	=19||	=19||	=19||	=19||	=19||
*	*8va	*	*	*	*
!	!LO:TUP:a	!	!LO:TX:a:t=Refrain	!	!
4EE-:/ 4BB-: 4G:	6dd\ 6gg 6ddd	.	6dd\	Spraw-	Naj-
.	6dd\ 6gg 6ddd	.	6dd\	-ca	-wię-
4B-\ 4e- 4g	.	.	.	.	.
.	6ee-\ 6bb- 6eee-	.	6ee-\	u-	-kszy
!	!LO:TUP:a	!	!	!	!
4BBB-/ 4BB-	6ff\ 6ccc 6fff	.	6ff\	-po-	fi-
.	6ff\ 6ccc 6fff	.	6ff\	-jeń	-glarz
4B-\ 4e- 4g	.	.	.	.	.
.	6ee-\ 6bb- 6eee-	.	6ee-\	i	na
=20	=20	=20	=20	=20	=20
8.DD/L 8.AAn 8.F#X	4dd/ 4aan 4ddd	.	4dd\	cier-	świe-
16D/Jk	.	.	.	.	.
8Fn\L 8An 8c	2.dd/ 2.aa 2.ddd	.	2.dd\	-pień,	-cie,
8AA\J	.	.	.	.	.
8.DD/L	.	.	.	.	.
16D/Jk	.	.	.	.	.
4F\ 4A 4c	.	.	.	.	.
=21	=21	=21	=21	=21	=21
4DD-X/ 4AA-X 4Fn	6cc/ 6ff 6ccc	.	6cc\	złu-	czu-
.	6cc/ 6ff 6ccc	.	6cc\	-dzeń	-ły,
4A-X\ 4d-X 4fn	.	.	.	.	.
.	6cc/ 6ff 6ccc	.	6cc\	i	ka-
4DD-/ 4AA-	6ff/ 6ccc 6fff	.	6ff\	zwąt-	-pry-
.	6ff/ 6ccc 6fff	.	6ff\	-pień	-śny,
4A-\ 4d- 4f	.	.	.	.	.
.	6cc/ 6ff 6ccc	.	6cc\	i	lub
*	*X8va	*	*	*	*
=22	=22	=22	=22	=22	=22
8.CC/L 8.GG	1b- 1een 1bb-	.	1b-	zdrad,	zły,
16G/Jk	.	.	.	.	.
8.B-/L 8.c 8.en	.	.	.	.	.
16GG/Jk	.	.	.	.	.
8.CC/L	.	.	.	.	.
16G/Jk	.	.	.	.	.
4B-\ 4c 4e	.	.	.	.	.
!!LO:LB:g=original
=23	=23	=23	=23	=23	=23
!	!LO:TUP:a	!	!	!	!
4CC-X/ 4C-X	6a-\ 6ee-X 6aa-	.	6a-/	naj-	lecz
.	6a-\ 6ee- 6aa-	.	6a-/	-wię-	każ-
4G-X\ 4c-X 4e-	.	.	.	.	.
.	6b-\ 6ee- 6bb-	.	6b-\	-kszy	-dy
!	!LO:TUP:a	!	!	!	!
4CC-/	6cc-X\ 6ee- 6ccc-X	.	6cc-X\	sztuk-	wie-
.	6b-\ 6ee- 6bb-	.	6b-\	-mistrz	-rzy
4G-\ 4c- 4e-	.	.	.	.	.
.	6a-\ 6ee- 6aa-	.	6a-/	to	mu
=24	=24	=24	=24	=24	=24
4BBB-/ 4BB-	4gn\ 4ee- 4ggn	.	4g/	ser-	prze-
4E-\ 4Gn 4B-	[2g\ [2ee- [2gg	.	2g/	-ce,	-cie,
4G\ 4cn 4e-	.	.	.	.	.
4G\ 4B-	8g\L] 8ee-] 8gg]	.	8r	.	.
.	8f\J	.	8f/	a	i
=25	=25	=25	=25	=25	=25
4FF:/ 4C: 4An:	6e-/	.	6e-/	je-	każ-
.	6e-/	.	6e-/	-go	-dy
4A\ 4c	.	.	.	.	.
.	6e-/	.	6e-/	a-	z nim
4FF:/ 4C: 4AnX:	[4ee-\	.	6ee-\	-re-	jest
.	.	.	6ee-\	-ną	.
!	!LO:TUP:a	!	!	!	!
4F\ 4A 4e-	(20ee-\LL]	.	.	.	.
.	20dd\	.	.	.	.
.	.	.	6ee-\	jest	na
.	20dd-X\	.	.	.	.
.	20cc\	.	.	.	.
.	20cc-X\JJ)	.	.	.	.
=26	=26	=26	=26	=26	=26
*	*^	*	*	*	*
4BBB-/ 4BB-	1b-	4r	.	1b-	świat!	"ty"...
4F\ 4A-X 4B- 4d	.	8.r	.	.	.	.
.	.	16b-\	.	.	.	.
(4c\ 4en 4g#X	.	2dd\ 2ff#X 2bb-	.	.	.	.
4B-\) 4d 4f#X	.	.	.	.	.	.
*	*v	*v	*	*	*	*
!!LO:LB:g=original
=27	=27	=27	=27	=27	=27
*	*8va	*	*	*	*
!	!LO:TUP:a	!	!	!	!
4EE-:/ 4BB-: 4G:	6dd\ 6gg 6ddd	.	6dd\	Tkli-	W kra-
.	6dd\ 6gg 6ddd	.	6dd\	-we,	-jach
4B-\ 4e- 4g	.	.	.	.	.
.	6ee-\ 6bb- 6eee-	.	6ee-\	kłam-	da-
!	!LO:TUP:a	!	!	!	!
4BBB-/ 4BB-	6ff\ 6ccc 6fff	.	6ff\	-li-	-le-
.	6ff\ 6ccc 6fff	.	6ff\	-we,	-kich
4B-\ 4e- 4g	.	.	.	.	.
.	6ee-\ 6bb- 6eee-	.	6ee-\	go-	i
=28	=28	=28	=28	=28	=28
8.DD:/L 8.AAn: 8.F#X:	4dd/ 4aan 4ddd	.	4dd\	-rą-	bli-
16D/Jk	.	.	.	.	.
8F#\L 8An 8c	2.dd/ 2.aa 2.ddd	.	2.dd\	-ce,	-skich,
8AA\J	.	.	.	.	.
8.DD/L	.	.	.	.	.
16D/Jk	.	.	.	.	.
4F#\ 4A 4c	.	.	.	.	.
=29	=29	=29	=29	=29	=29
4DD-X/ 4AA-X 4Fn	6cc/ 6ff 6ccc	.	6cc\	drę-	bi-
.	6cc/ 6ff 6ccc	.	6cc\	-czy	-ją
4A-X\ 4d-X 4fn	.	.	.	.	.
.	6cc/ 6ff 6ccc	.	6cc\	po	mi-
4DD-/ 4AA-	6ff/ 6ccc 6fff	.	6ff\	dni	-ljo-
.	6ff/ 6ccc 6fff	.	6ff\	na-	.
4A-\ 4d- 4f	.	.	.	.	.
.	6cc/ 6ff 6ccc	.	6cc\	-szych	-ny
*	*X8va	*	*	*	*
=30	=30	=30	=30	=30	=30
8.CC/L 8.GG	1b- 1een 1bb-	.	1b-	kres,	serc,
16G/Jk	.	.	.	.	.
!LO:TUP:a	!	!	!	!	!
12en\L	.	.	.	.	.
12c\	.	.	.	.	.
12B-\J	.	.	.	.	.
8.G\L	.	.	.	.	.
16En\K	.	.	.	.	.
8.D-X\	.	.	.	.	.
16C\Jk	.	.	.	.	.
!!LO:PB:g=original
=31	=31	=31	=31	=31	=31
*	*	*	*	*v:1	*v:2
!	!LO:TUP:a	!	!	!	!
8C-X\L	6a-\ 6ee-X 6aa-	.	6a-/	bi-	je-
8G-X\	.	.	.	.	.
.	6a-\ 6ee- 6aa-	.	6a-/	-je	-dno
8A-\	.	.	.	.	.
.	6b-\ 6ee- 6bb-	.	6b-\	i	u-
8c-X\J	.	.	.	.	.
!	!LO:TUP:a	!	!	!	!
[2e-\	6cc-X\ 6ee- 6ccc-X	.	6cc-X\	bi-	-sły-
.	6b-\ 6ee- 6bb-	.	6b-\	-je	-szysz
.	6a-\ 6ee- 6aa-	.	6a-/	bez	od
=32	=32	=32	=32	=32	=32
2B-\ 2e-]	4g\ 4ee- 4gg	.	4g/	koń-	wszys-
.	2.b-\ 2.gg 2.bb-	.	2.b-\	-ca...	-tkich:
4G\ 4B- 4c 4e-	.	.	.	.	.
4B-\ 4c 4e- 4g	.	.	.	.	.
=33	=33	=33	=33	=33	=33
*	*^	*	*	*	*
2FF/ 2C	6e-/	2An\	.	6e-/	Od	My
.	6e-/	.	.	6e-/	te-	hart...
.	6e-/	.	.	6e-/	-go	Mon
2BBB-/ 2BB-	4c/ 4g	2A-X\	.	4g/	ser-	coeur...
.	4d/ 4f	.	.	4f/	-cem	Mein
*	*v	*v	*	*	*	*
=34	=34	=34	=34	=34	=34
*^	*	*	*	*	*
4BB-/	1EE-	1G 1e-	.	1e-	jest.	Herz.
8.BB-/L	.	.	.	.	.	.
16BB-/Jk	.	.	.	.	.	.
8.C/L	.	.	.	.	.	.
16C/Jk	.	.	.	.	.	.
8.D-X/L	.	.	.	.	.	.
16D-/Jk	.	.	.	.	.	.
!!LO:LB:g=original
=35	=35	=35	=35	=35	=35	=35
*	*	*^	*	*	*	*
*	*	*	*	*	*	*v:1. 2.	*
4E-/	2AA-\	8.e-/L	4A-\ 4c	.	8e-/	Ra-	.
.	.	.	.	.	8e-/	-dość,	.
.	.	16e-/Jk	.	.	.	.	.
4F/	.	8.f/L	4A-\ 4c	.	8f/	mi-	.
.	.	.	.	.	8f/	-łość,	.
.	.	16f/Jk	.	.	.	.	.
4E-/	2AA-\	8.e-/L	4A-\ 4c	.	8e-/	ból	.
.	.	.	.	.	8e-/	roz-	.
.	.	16e-/Jk	.	.	.	.	.
12F/L	.	12f/L	4A-\ 4c	.	12f/	-sta-	.
12E-/	.	12e-/	.	.	12e-/	-nia	.
12F/J	.	12f/J	.	.	12f/	i	.
=36	=36	=36	=36	=36	=36	=36	=36
4G-X/	2C-X\	8.g-X/L	4c-X\ 4e-	.	8g-X/	łza,	.
.	.	.	.	.	8g-/	co	.
.	.	16g-/Jk	.	.	.	.	.
4A-/	.	8.a-/L	4c-\ 4e-	.	8a-/	o-	.
.	.	.	.	.	8a-/	-czy	.
.	.	16a-/Jk	.	.	.	.	.
4G-/	2C-\	8.g-/L	4c-\ 4e-	.	8g-/	nam	.
.	.	.	.	.	8g-/	przy-	.
.	.	16g-/Jk	.	.	.	.	.
12A-/L	.	12a-/L	4c-\ 4e-	.	12a-/	-sła-	.
12G-/	.	12g-/	.	.	12g-/	-nia,	.
12A-/J	.	12a-/J	.	.	12a-/	na	.
*	*	*v	*v	*	*	*	*
=37	=37	=37	=37	=37	=37	=37
4c/	2EE-/ 2E-	8.e-/L 8.gn 8.b-	p	8.b-\	je-	.
.	.	16e-/Jk 16g 16b-	.	16b-\	-go	.
4ryy	.	8e-/ 8g 8b-	.	8b-\	roz-	.
.	.	8e-/J 8g 8b-	.	8b-\	-kaz	.
4ryy	4DD/ 4D	8e-/L 8g 8b-	.	8b-\	wszys-	.
.	.	8e-/J 8g 8cc	.	8cc\	-tko	.
4ryy	4DD-X/ 4D-X	8.e-/L 8.g 8.cc	.	8.cc\	dzie-	.
.	.	16e-/Jk 16g 16b-	.	16b-\	-je	.
=38	=38	=38	=38	=38	=38	=38
*	*	*^	*	*	*	*
1CC 1C	(>4C/	1c 1cc	(>4en/	.	1cc	się!	.
.	4D/	.	4f/	.	.	.	.
.	4D#X/	.	4f#X/	.	.	.	.
.	4En/)	.	4g/)	.	.	.	.
!!LO:LB:g=original
=39	=39	=39	=39	=39	=39	=39	=39
!	!	!	!	!LO:DY:rj	!	!	!
4c/	2Fn\	8.cc/L	4fn\ 4a-	p	8cc\	W naj-	.
.	.	.	.	.	8cc\	-czar-	.
.	.	16cc/Jk	.	.	.	.	.
4d/	.	8.dd/L	4f\ 4a-	.	8dd\	-niej-	.
.	.	.	.	.	8dd\	-szą	.
.	.	16dd/Jk	.	.	.	.	.
4c/	2F\	8.cc/L	4f\ 4a-	.	8cc\	noc	.
.	.	.	.	.	8cc\	pro-	.
.	.	16cc/Jk	.	.	.	.	.
12d/L	.	12dd/L	4f\ 4a-	.	12dd\	-wa-	.
12c/	.	12cc/	.	.	12cc\	-dzi,	.
12d/J	.	12dd/J	.	.	12dd\	na-	.
=40	=40	=40	=40	=40	=40	=40	=40
4e-/	2A-\	8.ee-/L	4a-\ 4cc	.	8ee-\	-mięt-	.
.	.	.	.	.	8ee-\	-nym,	.
.	.	16ee-/Jk	.	.	.	.	.
4f/	.	8.ff/L	4a-\ 4cc	.	8ff\	ci-	.
.	.	.	.	.	8ff\	-chym	.
.	.	16ff/Jk	.	.	.	.	.
4e-/	2A-\	8.ee-/L	4a-\ 4cc	.	8ee-\	szep-	.
.	.	.	.	.	8ee-\	-tem	.
.	.	16ee-/Jk	.	.	.	.	.
12f/L	.	12ff/L	4a-\ 4cc	.	12ff\	ta-	.
12e-/	.	12ee-/	.	.	12ee-\	-dzi,	.
12f/J	.	12ff/J	.	.	12ff\	cza-	.
*v	*v	*	*	*	*	*	*
=41	=41	=41	=41	=41	=41	=41
*	*	*Xtuplet	*	*	*	*
2G\ 2c 2en	2een/ [2gg	6cc\	.	8.gg\	-sa-	.
.	.	6bn\	.	.	.	.
.	.	.	.	16gg\	-mi	.
.	.	.	.	8gg\	do-	.
.	.	6b-X\	.	.	.	.
.	.	.	.	8gg\	-brze!...	.
2FF:/ 2C: 2An:	8ee-X/L 8gg]	2an\	.	8r	.	.
.	8ff/	.	.	8ff\	Naj-	.
.	8ee-/	.	.	8ee-\	-częś-	.
.	8cc/J	.	.	8cc\	-ciej	.
=42	=42	=42	=42	=42	=42	=42
1BBB- 1BB-	1a- 1dd 1ff	4rccc	.	1ff	źle!	.
.	.	4f/ 4a- 4dd	.	.	.	.
.	.	4e-/ 4a- 4cc	.	.	.	.
.	.	4d/ 4a- 4b-	.	.	.	.
*	*v	*v	*	*	*	*
!!LO:LB:g=original
=43	=43	=43	=43	=43	=43
*	*8va	*	*	*	*
*	*tuplet	*	*	*v:1	*v:2
!	!LO:TUP:a	!	!	!	!
4EE-:/ 4BB-: 4G:	6dd\ 6gg 6ddd	.	6dd\	Tkli-	Plą-
.	6dd\ 6gg 6ddd	.	6dd\	-we,	-cze
4B-\ 4e- 4g	.	.	.	.	.
.	6ee-\ 6bb- 6eee-	.	6ee-\	kłam-	i
!	!LO:TUP:a	!	!	!	!
4BBB-/ 4BB-	6ff\ 6ccc 6fff	.	6ff\	-li-	rzą-
.	6ff\ 6ccc 6fff	.	6ff\	-we	-dzi
4B-\ 4e- 4g	.	.	.	.	.
.	6ee-\ 6bb- 6eee-	.	6ee-\	go-	się
=44	=44	=44	=44	=44	=44
8.DD/L 8.AAn 8.F#X	4dd/ 4aan 4ddd	.	4dd\	-rą-	wszę-
16D/Jk	.	.	.	.	.
!LO:SIC:v:n=2:o=8Fn\L 8A- 8c	!	!	!	!	!
8An	2.dd/ 2.aa 2.ddd	.	2.dd\	-ce,	-dzie,
8AA\J	.	.	.	.	.
8.DD/L	.	.	.	.	.
16D/Jk	.	.	.	.	.
!LO:SIC:v:n=2:o=4F\ 4A- 4c	!	!	!	!	!
4An	.	.	.	.	.
=45	=45	=45	=45	=45	=45
4DD-X/ 4AA-X 4Fn	6cc/ 6ff 6ccc	.	6cc\	drę-	na-
.	6cc/ 6ff 6ccc	.	6cc\	-czy	-rzę-
4A-X\ 4d-X 4fn	.	.	.	.	.
.	6cc/ 6ff 6ccc	.	6cc\	po	-dzie
4DD-/ 4AA-	6ff/ 6ccc 6fff	.	6ff\	dni	szczęś-
.	6ff/ 6ccc 6fff	.	6ff\	na-	-cia,
4A-\ 4d- 4f	.	.	.	.	.
.	6cc/ 6ff 6ccc	.	6cc\	-szych	lub
*	*X8va	*	*	*	*
=46	=46	=46	=46	=46	=46
8.CC/L 8.GG	1b- 1een 1bb-	.	1b-	kres!	łez;
16G/Jk	.	.	.	.	.
!LO:TUP:a	!	!	!	!	!
12B-\L	.	.	.	.	.
12Bn\	.	.	.	.	.
12c\J	.	.	.	.	.
8.en\L	.	.	.	.	.
16f\K	.	.	.	.	.
8.f#X\	.	.	.	.	.
16g\Jk	.	.	.	.	.
!!LO:LB:g=original
=47	=47	=47	=47	=47	=47
*	*	*	*	*v:1	*v:2
!	!LO:TUP:a	!	!	!	!
4CC-X/ 4C-X	6a-\ 6ee- 6aa-	.	6a-/	Bi-	Bi-
.	6a-\ 6ee- 6aa-	.	6a-/	-je	-je
4G-X\ 4c-X 4e-	.	.	.	.	.
.	6b-\ 6ee- 6bb-	.	6b-\	i	i
!	!LO:TUP:a	!	!	!	!
4CC-/ 4C-	6cc-X\ 6ee- 6ccc-X	.	6cc-X\	bi-	zaw-
.	6b-\ 6ee- 6bb-	.	6b-\	-je	-sze
4G-\ 4c- 4e-	.	.	.	.	.
.	6a-\ 6ee- 6aa-	.	6a-/	bez	bić
=48	=48	=48	=48	=48	=48
*^	*	*	*	*	*
4r	1BBB- 1BB-	1ee- 1gg 1eee-	.	4ee-\	koń-	bę-
4Gn\ 4B- 4cn 4e-	.	.	.	2.ee-\	-ca!	-dzie!
4B-\ 4c 4e- 4gn	.	.	.	.	.	.
4c\ 4e- 4g 4b-	.	.	.	.	.	.
*v	*v	*	*	*	*	*
=49	=49	=49	=49	=49	=49
*	*^	*	*	*	*
2FF/ 2C	6e-/	2An\	.	6e-/	od	od
.	6e-/	.	.	6e-/	te-	te-
.	6e-/	.	.	6e-/	-go	-go
2BBB-/ 2BB-	4c/ 4g	2A-X\	.	4g/	ser-	ser-
.	4d/ 4f	.	.	4f/	-cem	-cem
*	*v	*v	*	*	*	*
=50	=50	=50	=50	=50	=50
*>B1	*>B1	*	*>B1	*	*
*^	*	*	*	*	*
4r	1EE-	1G 1e-	.	2e-/	jest!	.
4BB-/	.	.	.	.	.	.
4C/	.	.	.	2r	.	.
4C-X/	.	.	.	.	.	.
*v	*v	*	*	*	*	*
=51:|!	=51:|!	=51:|!	=51:|!	=51:|!	=51:|!
*>B2	*>B2	*	*>B2	*	*
*	*^	*	*	*	*
2EE-/ 2BB-	2G/ 2e-	2ryy	<	2e-/	.	jest!
2DD-X:/ 2AA-: 2F:	6dd-X/	2e-\ 2f	.	2r	.	.
.	6cc-X/	.	.	.	.	.
.	6a-/	.	[ >	.	.	.
*	*v	*v	*	*	*	*
=52	=52	=52	=52	=52	=52
1EE- 1BB- 1G	1cn 1e- 1g 1b-	]]	1r	.	.
==	==	==	==	==	==
*-	*-	*-	*-	*-	*-
!!!system-decoration: s1{(s2,s3)}
!!!RDF**kern: < = below
!!!RDF**kern: > = above
!!!ENC: Berenika Jozajtis
!!!END: 2023-08-17
!!!EED: Marta Chmielewska
!!!EEV: 2023-10-03
